X:1
T:Title
%%score { ( 1 4 ) | ( 2 3 ) }
L:1/8
Q:1/4=100
M:4/4
K:D
V:1 treble nm="Grand Piano"
V:4 treble 
V:2 bass 
V:3 bass 
V:1
 [FA][GB][FA][GB] [FA]2 [DF]2 | [FA]2 [Fd]2 [FA]2 [DF]2 | [EG][^DF][EG][FA] [Gc]2 .[B,GB]2 | %3
w: B.~D.~Ackley * * * * *|||
 [=FB]4 [^FA]2 z2 | [FA][GB][FA][GB] [FA]2 [DF]2 | [FA]2 [Fd]2 [FA]2 F2 | EF^GA B2 E2 | A4- [GA]4 | %8
w: |||||
 [Fd][Fc][FB][Fc] [FB]2 [DF]2 | [CA][CB][CA][CB] [CA]2 [CE]2 | DCDE [^G,DF]2 [G,DE]2 | %11
w: |||
 [A,A]2- [G,A,-A-]2 [A,GA]4 | [Fd][Fc][FB][Fc] [FB]2 F2 | AGFG E2 B2 | A2 ^GA .^A2 .[C=A]2 | %15
w: ||||
 D6 z2 |] %16
w: |
V:2
 [D,D][D,D][D,D][D,D] [D,D]2 [D,A,]2 | [D,D]2 [D,A,]2 [D,D]2 [D,A,]2 | %2
 [A,,A,][A,,A,][A,,A,][A,,A,] [A,,A,]2 z C | [D,D]6 z2 | [D,D][D,D][D,D][D,D] [D,D]2 [D,A,]2 | %5
 [D,D]2 [D,A,]2 [D,D]2 [D,A,D]2 | [E,^G,D][E,A,D][E,B,D][E,A,C] [E,G,D]2 [E,G,D]2 | A,,4 A,4 | %8
 [D,A,][D,A,][D,A,][D,A,] [D,D]2 [D,A,]2 | [A,,G,][A,,G,][A,,G,][A,,G,] [A,,E,]2 [A,,G,]2 | %10
 [B,,F,B,][B,,F,B,][B,,^G,B,][B,,G,B,] B,,2 E,2 | z2 G,,2 [F,,F,]2 [E,,E,]2 | %12
 [D,A,][D,A,][D,A,][D,A,] [D,A,]2 [^D,=C]2 | %13
 [E,B,F][E,B,E][E,B,^D][E,B,E] [G,B,]2[K:treble] [^G,=D=F]2 | %14
 [A,DF]2 [A,D=F][A,D^F] .[A,CG]2[K:bass] .[A,,G,]2 | [D,F,]6 z2 |] %16
V:3
 x8 | x8 | z4 z2 A,,2 | x8 | x8 | x8 | x8 | x8 | x8 | x8 | x8 | A,,8 | x8 | x6[K:treble] x2 | %14
 x6[K:bass] x2 | x8 |] %16
V:4
 x8 | x8 | x8 | x8 | x8 | x8 | x8 | [A,C]4 z4 | x8 | x8 | x8 | C4 z4 | x8 | x8 | x8 | x8 |] %16

